ecoconception/src/assets/svg/logo-elle.svg

<svg width="204" height="82" viewBox="0 0 204 82" fill="none" xmlns="http://www.w3.org/2000/svg">
<path fill-rule="evenodd" clip-rule="evenodd" d="M6.20911 80.4404H0V81.6452H34.3818V59.9596H33.3624C33.3624 59.9596 33.3624 72.4705 29.1921 76.5481C25.6705 80.0697 21.9636 80.3477 15.9398 80.3477V40.4055C15.9398 40.4055 20.1101 40.1275 22.1489 42.1663C25.2998 45.3172 25.6705 49.3949 25.6705 55.0479H26.7826V24.4657H25.6705C25.6705 30.1188 25.3925 34.1964 22.1489 37.3473C20.1101 39.3861 15.9398 39.1081 15.9398 39.1081V1.20475C21.9636 1.20475 24.8364 1.57545 28.358 5.00436C32.4356 9.08198 32.5283 21.5929 32.5283 21.5929H33.5477V0H0V1.20475H6.20911V80.4404Z" fill="black"/>
<path fill-rule="evenodd" clip-rule="evenodd" d="M73.3972 1.20475V80.4404C79.421 80.4404 83.1279 80.0697 86.6495 76.6408C90.7271 72.5632 90.8198 60.0523 90.8198 60.0523H91.8392V81.7378H57.4574V80.5331H63.6665V1.11208H57.4574V0H79.0503V1.20475H73.3972Z" fill="black"/>
<path fill-rule="evenodd" clip-rule="evenodd" d="M128.63 1.20475V80.4404C134.654 80.4404 138.361 80.0697 141.883 76.6408C145.96 72.5632 146.053 60.0523 146.053 60.0523H147.072V81.7378H112.691V80.5331H118.9V1.11208H112.691V0H134.284V1.20475H128.63Z" fill="black"/>
<path fill-rule="evenodd" clip-rule="evenodd" d="M175.523 80.4404H169.314V81.6452H203.696V59.9596H202.676C202.676 59.9596 202.676 72.4705 198.506 76.5481C194.985 80.0697 191.278 80.3477 185.254 80.3477V40.4055C185.254 40.4055 189.424 40.1275 191.463 42.1663C194.614 45.3172 194.985 49.3949 194.985 55.0479H196.097V24.4657H194.985C194.985 30.1188 194.707 34.1964 191.463 37.3473C189.424 39.3861 185.254 39.1081 185.254 39.1081V1.20475C191.278 1.20475 194.151 1.57545 197.672 5.00436C201.75 9.08198 201.842 21.5929 201.842 21.5929H202.862V0H169.314V1.20475H175.523V80.4404Z" fill="black"/>
</svg>

<svg xmlns="http://www.w3.org/2000/svg" width="204" height="82" fill="none"><path fill="#000" fill-rule="evenodd" d="M6.21 80.44H0v1.205h34.382V59.96h-1.02s0 12.51-4.17 16.588c-3.521 3.522-7.228 3.8-13.252 3.8V40.406s4.17-.279 6.209 1.76c3.15 3.151 3.521 7.229 3.521 12.882h1.113V24.466H25.67c0 5.653-.278 9.73-3.521 12.881-2.039 2.04-6.21 1.761-6.21 1.761V1.205c6.025 0 8.897.37 12.419 3.8 4.078 4.077 4.17 16.588 4.17 16.588h1.02V0H0v1.205h6.21V80.44ZM73.397 1.205V80.44c6.024 0 9.73-.37 13.252-3.8 4.078-4.077 4.17-16.588 4.17-16.588h1.02v21.686H57.457v-1.205h6.21V1.113h-6.21V0H79.05v1.205h-5.653ZM128.63 1.205V80.44c6.024 0 9.731-.37 13.253-3.8 4.077-4.077 4.17-16.588 4.17-16.588h1.019v21.686h-34.381v-1.205h6.209V1.113h-6.209V0h21.593v1.205h-5.654ZM175.523 80.44h-6.209v1.205h34.382V59.96h-1.02s0 12.51-4.17 16.588c-3.521 3.522-7.228 3.8-13.252 3.8V40.406s4.17-.279 6.209 1.76c3.151 3.151 3.522 7.229 3.522 12.882h1.112V24.466h-1.112c0 5.653-.278 9.73-3.522 12.881-2.039 2.04-6.209 1.761-6.209 1.761V1.205c6.024 0 8.897.37 12.418 3.8 4.078 4.077 4.17 16.588 4.17 16.588h1.02V0h-33.548v1.205h6.209V80.44Z" clip-rule="evenodd"/></svg>
